icon/fa/truck-front.svg

<svg xmlns="http://www.w3.org/2000/svg" viewBox="0 0 512 512"><!--! Font Awesome Free 6.1.2 by @fontawesome - https://fontawesome.com License - https://fontawesome.com/license/free (Icons: CC BY 4.0, Fonts: SIL OFL 1.1, Code: MIT License) Copyright 2022 Fonticons, Inc.--><path d="M0 80C0 35.82 35.82 0 80 0h352c44.2 0 80 35.82 80 80v288c0 26.2-12.6 49.4-32 64v48c0 17.7-14.3 32-32 32h-32c-17.7 0-32-14.3-32-32v-32H128v32c0 17.7-14.3 32-32 32H64c-17.67 0-32-14.3-32-32v-48c-19.43-14.6-32-37.8-32-64V80zm129.9 72.2L112 224h288l-17.9-71.8c-3.6-15.1-16.4-24.2-31.1-24.2H160.1c-13.8 0-26.6 9.1-30.2 24.2zM96 288c-17.67 0-32 14.3-32 32s14.33 32 32 32c17.7 0 32-14.3 32-32s-14.3-32-32-32zm320 64c17.7 0 32-14.3 32-32s-14.3-32-32-32-32 14.3-32 32 14.3 32 32 32z"/></svg>

<svg xmlns="http://www.w3.org/2000/svg" viewBox="0 0 512 512" height="1em" width="1em">
<!--! Font Awesome Free 6.1.2 by @fontawesome - https://fontawesome.com License - https://fontawesome.com/license/free (Icons: CC BY 4.0, Fonts: SIL OFL 1.1, Code: MIT License) Copyright 2022 Fonticons, Inc.-->
  <path d="M0 80C0 35.82 35.82 0 80 0H432C476.2 0 512 35.82 512 80V368C512 394.2 499.4 417.4 480 432V480C480 497.7 465.7 512 448 512H416C398.3 512 384 497.7 384 480V448H128V480C128 497.7 113.7 512 96 512H64C46.33 512 32 497.7 32 480V432C12.57 417.4 0 394.2 0 368V80zM129.9 152.2L112 224H400L382.1 152.2C378.5 137.1 365.7 128 351 128H160.1C146.3 128 133.5 137.1 129.9 152.2H129.9zM96 288C78.33 288 64 302.3 64 320C64 337.7 78.33 352 96 352C113.7 352 128 337.7 128 320C128 302.3 113.7 288 96 288zM416 352C433.7 352 448 337.7 448 320C448 302.3 433.7 288 416 288C398.3 288 384 302.3 384 320C384 337.7 398.3 352 416 352z"/>
</svg>
